X: 14994
T: Gentle Light That Wakes Me, The
R: reel
M: 4/4
K: Dmajor
D2|:A>F A,>A, A2 G>F|F2 {GF}E>D F2 {GF}E2|D2 d>c B2 BA|A2 D>E F2 {GF}E2|
A>F A,>A, A2 G>F|{G}F2 {GF}E>D {G}F2 {GF}E2|D2 B{Bc}A A2 D>E|F2 E>D D4:|
D2|d2 c>d e3 c|d2 c>d {FG}F4|d2 c>d B2 {B}A>B|A2 D>E F2 {GF}E>E|
d2 c>d e3 c|d2 c>d F3 E|D2 B>A A2 D>E|F2 E>D D3D|
d2 c>d e3 c|d2 c>d {FG}F4|d2 c>d B2 {B}A>B|A2 D>E F2 {GF}E>E|
A>F A,>A, A2 G>F|F2 E>D F2 {GF}E2|D>D B>A A2 D>E|F2 {F}E>D D4||

